X:1
T:Quia viderunt II
T:Ivo de Vento
T:Source : Liber mottetorum 4 vocum---Monacii---A.Berg---1571. Editor : André Vierendeels (08/11/16).
T:Quia viderunt II
T:©
T:©
T:©
T:©
T:©
C:Ivo de Vento
Z:©
%%score [ 1 2 3 4 ]
L:1/8
Q:1/4=125
M:2/2
K:C
V:1 treble nm="Soprano" snm="S"
V:2 treble nm="Alto" snm="A"
V:3 treble-8 nm="Tenor" snm="T"
V:4 bass nm="Bass" snm="B"
V:1
 z8 | z2 E2 G2 G2 | A4 E2 F2- | FE E4 D2 | E2 AG FEFG | A4 E4 | z2 E2 F2 F2 | A4 G2 c2- | %8
w: |Qui- a vi-|de- runt o-|* * * cu-|li me- * * * * *|* i,|qui- a vi-|de- runt o|
 cc c2 BA A2- |"^#""^#""^#" AG/F/ G2 A2 E2- | E2 F2 E4 | E2 A3 G/F/ G2 | A4 z4 | z4 z2 d2- | %14
w: _ cu- li me- * *|* * * * i, sa-|* lu- ta-|re tu- * * *|um,|sa-|
 d2 c2 A2 G2 | FE E3 D/C/ D2 | E8- | E8- | E8 || z8 | z8 | z8 | z8 | z8 | z8 | z8 | z8 | z8 | z8 | %29
w: * lu- ta- re|tu- * * * * *|um.|_||||||||||||
 z8 | z8 | z8 | z8 | z8 | z8 || z8 | E8 | G4 A4 | G4 c4- | c2 B2 A2 ^G2 | A2 A2 c4 | c2 B3 A A2- | %42
w: |||||||Sic-|ut e-|rat in|_ prin- ci- pi-|o et nunc|et sem- * *|
"^#""^#""^#" AG/F/ G2 A4 | z4 z2 A2- | A2 ^G2 A2 D2 | A8 | G4 z2 A2- | A2 ^G2 A3 A | c2 B2 E4 | %49
w: * * * * per,|se-|* cu- lo- rum,|a-|men, se-|* cu- lo- *|* rim, a-|
 E8- | E8- | E8 |] %52
w: men.|_||
V:2
 z8 | z8 | z8 | z4 A,4 | C2 C2 D4 | A,2 A,2 C2 C2 | E4 A,4 | E6 G2 | F4 F4 | E4 C4 | C6 B,2 | %11
w: |||Qui-|a vi- de-|runt, qui- a vi-|de- runt|o- cu-|li me-|* i,|sa- lu-|
 C2 E2 E4 | C4 C3 C | F2 F2 D3 E | F2 E2 z2 D2- | D2 C2 A,3 B, | C3 B, A,2 E,2 | C8 | %18
w: ta- re tu-|um, sa- lu-|ta- re tu- *|* um, sa-|* lu- ta- *|* * * re|tu-|
"^(tacet)" B,8 || z8 | z8 | z8 | z8 | z8 | z8 | z8 | z8 | z8 | z8 | z8 | z8 | z8 | z8 | z8 | z8 || %35
w: um.|||||||||||||||||
 z2 E4 D2 | C4 B,2 B,2 | B,2 E3 D/C/ D2 | E2 E3 DCB, | A,2 B,2 C2 B,2 | E2 E2 E2 A2 | G3 F E4 | %42
w: Sic- ut|e- rat, sic-|ut e- * * *|rat in _ _ _|prin- ci- pi- o|et nunc, et sem-||
 E4 C4 | D2 E4 E2 | E4 F4- | F2 E2 F2 F2 | E3 F G2 F2 | z2 E4 D2 | E2 E2 C4 | A,2 C4 B,2 | %50
w: per, et|in se- cu-|la se-|* cu- lo- rum,|a- * * men,|se- cu-|lo- rum, a-|men, se- cu-|
 A,2 A,2 C4 | B,8 |] %52
w: lo- rum, a-|men..|
V:3
 E4 G2 G2 | A4 E2 c2- | c2 A2 c4 | G3 A F4 | E4 z2 D2 | F2 F2 A4 | G4 z2 d2- | d2 c2 B2 AG | %8
w: Qui- a vi-|de- runt o-|* cu- li|me- * *|i, qui-|a vi- de-|runt o-|* cu- li _ _|
 A4 d3 c | B4 A4 | A6 ^G2 | A2 c2 B4 | A4 z4 | z2 A4 ^G2 | A3 B c2 B2 | A3 G F4 | E2 c4 B2 | %17
w: _ me- *|* i,|sa- lu-|ta- re tu-|um,|sa- lu-|ta- * * re|tu- * *|um, sa- lu-|
 A2 G2 AE A2 |"^(tacet)" ^G8 || E4 G4 | A4 z2 E2 | FGAB c2 A2 | G2 E2 FE cB | AG FA GC c2 | %24
w: ta- re tu- * *|um.|Lu- me|_ ad|re- * * * * ve-|la- ti- o- * * *||
"^#" B2 A4 G2 | A4 z2 c2 | FGAB c2 A2 | G4 z2 A2- | A2 G2 A2 c2 | G3 A BGAB | c2 B2 A2 d2- | %31
w: nem gen- ti-|um, et|glo- * * * * ri-|am ple-|* bis tu- ae|Is- * * * * *|* ra- el, ple-|
 d2 ^c2 d4 | A2 A3 GAB | c3 B AGGF/E/ | F3 F !fermata!E4 || E4 G4 | A4 E4 | z2 c4 BA | %38
w: * bis tu-|ae Is- * * *||* ra- el.|Sic- ut|e- rat,|sic- * *|
 c2 B2 A2 E2 | e3 e e2 e2 | c4 z2 e2 | e2 d2 c4 | B4 A2 A2- | A2 B2 c3 c | B4 d4- | d2 ^c2 d2 A2 | %46
w: * cut e- rat|in prin- ci- pi-|o et|ninc, et sem-|* per, et|_ in se- cu-|la se-|* cu- lo- rum,|
 c2 BA Bc dA | c2 B2 z2 A2- | A2 ^G2 A3 B | c4 G4 | c3 B AE A2 | ^G8 |] %52
w: a- * * * * * *|* men, se-|* cu- lo- rum,|a- men,|se- cu- lo- rum a-|men.|
V:4
 z8 | z8 | z4 A,,4 | C,2 C,2 D,4 | A,,4 z4 | z4 z2 A,,2 | C,2 C,2 D,4 | A,,4 E,3 E, | F,4 D,4 | %9
w: ||Qui-|a vi- de-|runt|qui-|a vi- de-|runt o- cu-|li me-|
 E,4 A,,4 | z8 | z4 E,4 | F,2 F,4 E,2 | D,3 C, B,,4 | A,,4 z4 | z8 | A,,6 ^G,,2 | A,,2 C,2 A,,4 | %18
w: * i,||sa-|lu- ta- re|tu- * *|um,||sa- lu-|ta- re tu-|
 E,,8 || z8 | A,,4 C,4 | D,4 z2 F,2 | E,D,C,B,, A,,2 A,,2 | C,2 D,2 E,2 C,2 | D,3 C, B,,2 B,,2 | %25
w: um.||Lu- men|_ ad|re- * * * * ve-|la- ti- o- nem|gen- * * ti-|
 A,,2 D,2 A,G,F,E, | D,2 D,2 C,2 F,2- | F,2 E,2 D,2 A,,2 | C,2 B,,2 A,,4 | z2 E,4 D,2 | %30
w: um, et glo- * * *|* ri- am ple-|* bis tu- ae|Is- ra- el,|ple- bis|
 E,2 G,2 F,3 F, | E,4 z2 D,2- | D,2 ^C,2 D,4 | A,,2 F,3 E, E,2- | E,2 D,2 !fermata!E,4 || z8 | %36
w: tu- ae Is- ra-|el, ple-|* bis tu-|ae Is- * *|* ra- el.||
 z2 A,4 G,2 | E,4 F,4 | E,4 A,,4- | A,,2 ^G,,2 A,,2 E,2 | A,,2 A,,2 A,3 G, | E,2 G,2 A,4 | %42
w: Sic- ut|e- *|rat in|_ prin- ci- pi-|o et nunc _|_ et sem-|
 E,4 z2 F,2- | F,2 G,2 A,2 A,,2 | E,4 z4 | z8 | z2 E,4 D,2 | E,2 E,2 F,4 | E,4 z2 A,,2- | %49
w: per, et|_ in se- cu-|la||se- cu-|lo- rum, a-|men, se-|
 A,,2 A,,2 C,2 G,,2 | A,,8 | E,8 |] %52
w: * cu- lo- rum|a-|men.|

